X: 26214
T: Mean Fouyir
R: reel
M: 4/4
K: Bminor
|:BAFG E3F|G3F GA (3Bcd|AFEF D3E|FE (3FGA BAdA|
BAFG E3F|FGGF GA (3Bcd|Bg3 gfec|(3dcB AF FEE2:|
|:fg3 gfec|dAFA defd|Bg3 gfec|dBAF FEE2|
fg3 gfec|defg a2ga|bgaf gfec|dBAF FEE2|
fg3 gfec|dAFA defd|Bg3 gfec|dBAF FEE2|
EFGA BABd|Ad3 defd|Bg3 gfec|dBAF FEE2||

